assets/images/img_labeltext.svg

<svg width="5" height="5" viewBox="0 0 5 5" fill="none" xmlns="http://www.w3.org/2000/svg">
<path d="M2.98469 5H2.01531L2.09184 3.16953L0.484694 4.15233L0 3.34152L1.69643 2.50614L0 1.65848L0.484694 0.847666L2.09184 1.83047L2.01531 0H2.98469L2.89541 1.83047L4.50255 0.847666L5 1.65848L3.30357 2.50614L5 3.34152L4.50255 4.15233L2.89541 3.16953L2.98469 5Z" fill="#DC4747"/>
</svg>

<svg xmlns="http://www.w3.org/2000/svg" width="5" height="5" fill="none" viewBox="0 0 5 5"><path fill="#DC4747" d="M2.985 5h-.97l.077-1.83-1.607.982L0 3.342l1.696-.836L0 1.658l.485-.81 1.607.982L2.015 0h.97l-.09 1.83L4.503.848l.497.81-1.696.848L5 3.342l-.497.81-1.608-.982.09 1.83Z"/></svg>
